X: 42
T:Dove Crag
C:Chris Ormston (copyrighted)
M:4/4
L:1/8
Z:bil@blueskiesink.com
K:D
fe|d2 f2 A2 bC|d2 a2 f3 d|e3 f gfed|f2 e2 e2 fe|d2 f2 A2 Bc|d2 A2 f3 a|B
ABd cAce|d5:||ag|f2 a2 d2 ag|f2 d2 a3 d|e3 f gfed|f2 e2 e2 |1ag|f2 a2 d2
ag|f2 d2 a3 A| BGBd cAce|d5:||:2|fe|d2f2 a2 BC
<end>
<start>
